www/assets/icons/pending.svg

<svg xmlns="http://www.w3.org/2000/svg" width="24" height="24" viewBox="0 0 24 24" fill='currentColor'><path d="M12 2C6.48 2 2 6.48 2 12s4.48 10 10 10 10-4.48 10-10S17.52 2 12 2M7 13.5c-.83 0-1.5-.67-1.5-1.5s.67-1.5 1.5-1.5 1.5.67 1.5 1.5-.67 1.5-1.5 1.5m5 0c-.83 0-1.5-.67-1.5-1.5s.67-1.5 1.5-1.5 1.5.67 1.5 1.5-.67 1.5-1.5 1.5m5 0c-.83 0-1.5-.67-1.5-1.5s.67-1.5 1.5-1.5 1.5.67 1.5 1.5-.67 1.5-1.5 1.5"/></svg>

<svg width="24" height="24" viewBox="0 0 24 24" xmlns="http://www.w3.org/2000/svg" fill='currentColor'><path d="M12 2C6.48 2 2 6.48 2 12C2 17.52 6.48 22 12 22C17.52 22 22 17.52 22 12C22 6.48 17.52 2 12 2ZM7 13.5C6.17 13.5 5.5 12.83 5.5 12C5.5 11.17 6.17 10.5 7 10.5C7.83 10.5 8.5 11.17 8.5 12C8.5 12.83 7.83 13.5 7 13.5ZM12 13.5C11.17 13.5 10.5 12.83 10.5 12C10.5 11.17 11.17 10.5 12 10.5C12.83 10.5 13.5 11.17 13.5 12C13.5 12.83 12.83 13.5 12 13.5ZM17 13.5C16.17 13.5 15.5 12.83 15.5 12C15.5 11.17 16.17 10.5 17 10.5C17.83 10.5 18.5 11.17 18.5 12C18.5 12.83 17.83 13.5 17 13.5Z"/></svg>
